build/category/BranchesOutline.svg

<svg xmlns="http://www.w3.org/2000/svg" fill="none" viewBox="0 0 24 24" focusable="false"><path d="M0 0H24V24H0z"/><path fill="#74767B" fill-rule="evenodd" d="M6.64639 8.93019C7.99256 8.63458 9 7.43494 9 6C9 4.34315 7.65685 3 6 3C4.34315 3 3 4.34315 3 6C3 7.43501 4.00754 8.63469 5.3538 8.93023C5.35135 8.95315 5.3501 8.97643 5.3501 9.00001L5.3501 15.0706C4.00569 15.3675 3 16.5663 3 18C3 19.6569 4.34315 21 6 21C7.42611 21 8.61981 20.0049 8.92463 18.6712L14.9999 18.6712C17.0157 18.6712 18.6499 17.037 18.6499 15.0212L18.6499 14.9294C19.9943 14.6325 21 13.4337 21 12C21 10.3431 19.6569 9 18 9C16.3431 9 15 10.3431 15 12C15 13.4336 16.0056 14.6324 17.3499 14.9294L17.3499 15.0212C17.3499 16.3191 16.2978 17.3712 14.9999 17.3712L8.93399 17.3712C8.68977 16.2261 7.79216 15.3229 6.6501 15.0706L6.6501 9.00001C6.6501 8.97642 6.64884 8.95312 6.64639 8.93019ZM7.7 6C7.7 6.93888 6.93888 7.7 6 7.7C5.06112 7.7 4.3 6.93888 4.3 6C4.3 5.06112 5.06112 4.3 6 4.3C6.93888 4.3 7.7 5.06112 7.7 6ZM18 13.7C18.9389 13.7 19.7 12.9389 19.7 12C19.7 11.0611 18.9389 10.3 18 10.3C17.0611 10.3 16.3 11.0611 16.3 12C16.3 12.9389 17.0611 13.7 18 13.7ZM7.7 18C7.7 18.9389 6.93888 19.7 6 19.7C5.06112 19.7 4.3 18.9389 4.3 18C4.3 17.0611 5.06112 16.3 6 16.3C6.93888 16.3 7.7 17.0611 7.7 18Z"/></svg>

<svg xmlns="http://www.w3.org/2000/svg" fill="none" viewBox="0 0 24 24" focusable="false"><path fill="#74767B" fill-rule="evenodd" d="M6.64 8.93A3.01 3.01 0 0 0 9 6c0-1.66-1.35-3-3-3a3.002 3.002 0 0 0-.65 5.93v6.14A2.985 2.985 0 0 0 3 18c0 1.65 1.34 3 3 3 1.42 0 2.61-1 2.92-2.33H15c2.01 0 3.64-1.64 3.64-3.65v-.1A2.99 2.99 0 0 0 21 12c0-1.66-1.35-3-3-3-1.66 0-3 1.34-3 3 0 1.43 1 2.63 2.34 2.92v.1c0 1.29-1.05 2.35-2.34 2.35H8.93a3 3 0 0 0-2.28-2.3V9c0-.03-.01-.05-.01-.07M7.69 6c0 .93-.76 1.7-1.69 1.7a1.705 1.705 0 0 1 0-3.41c.93 0 1.69.77 1.69 1.71M18 13.7c.93 0 1.7-.77 1.7-1.7a1.705 1.705 0 0 0-3.41 0c0 .93.77 1.7 1.71 1.7M7.69 18c0 .93-.76 1.7-1.69 1.7a1.705 1.705 0 0 1 0-3.41c.93 0 1.69.77 1.69 1.71"/></svg>
